public/assets/img/tech-logo/mysql.svg

<svg width="100" height="100" viewBox="0 0 100 100" fill="none" xmlns="http://www.w3.org/2000/svg">
<g id="mysql">
<g id="mysql_2">
<path id="Vector" d="M92.1104 77.0668C86.6696 76.9291 82.4527 77.4815 78.916 79.0001C77.8957 79.414 76.2632 79.4144 76.1272 80.7262C76.6713 81.2786 76.7394 82.1762 77.2155 82.9353C78.0325 84.3158 79.4598 86.1801 80.7522 87.1471C82.1802 88.2514 83.609 89.3558 85.1047 90.3224C87.7575 91.9795 90.7504 92.9458 93.3348 94.6029C94.8316 95.5687 96.3269 96.8123 97.8233 97.8476C98.5716 98.3992 99.0473 99.2976 100 99.6424V99.4357C99.5235 98.8139 99.3874 97.9167 98.9117 97.2262C98.2323 96.5358 97.5513 95.9143 96.8711 95.2239C94.8989 92.5319 92.4505 90.1843 89.7981 88.2514C87.6218 86.7324 82.8604 84.6614 81.9766 82.1067C81.9766 82.1067 81.9081 82.0381 81.8405 81.969C83.3366 81.831 85.1047 81.2786 86.5335 80.8643C88.8458 80.2425 90.9541 80.381 93.3348 79.7596C94.4227 79.4834 95.511 79.1382 96.599 78.7929V78.1719C95.3754 76.9291 94.4911 75.2724 93.1987 74.0986C89.7301 71.0602 85.921 68.092 81.9766 65.6068C79.8679 64.2258 77.1471 63.3282 74.9028 62.1549C74.0874 61.7402 72.7266 61.5334 72.2508 60.843C71.026 59.3244 70.3458 57.3224 69.462 55.5272C67.4902 51.7297 65.5852 47.5187 63.8847 43.5148C62.6611 40.8221 61.9129 38.1293 60.4164 35.6444C53.4111 23.9078 45.7936 16.7969 34.0957 9.82362C31.5789 8.37406 28.5864 7.75264 25.3898 6.99354C23.6901 6.92409 21.9892 6.7864 20.2891 6.71696C19.2008 6.23363 18.1124 4.92216 17.1602 4.30075C13.2842 1.81509 3.28555 -3.5693 0.429089 3.54164C-1.40746 8.02883 3.1499 12.447 4.71359 14.7259C5.87072 16.3135 7.36639 18.1083 8.18263 19.9035C8.65877 21.0765 8.79443 22.3201 9.27057 23.5626C10.3593 26.5994 11.3788 29.983 12.8076 32.8139C13.5559 34.2635 14.3717 35.7821 15.324 37.094C15.8682 37.8531 16.8201 38.1987 17.0245 39.4411C16.0726 40.8221 16.0042 42.8934 15.4596 44.6192C13.0113 52.4206 13.964 62.0858 17.4322 67.8158C18.5202 69.5412 21.1049 73.3395 24.5736 71.8891C27.6345 70.6467 26.9543 66.7115 27.8378 63.2596C28.0426 62.4303 27.9066 61.8787 28.3143 61.3263V61.4648C29.2666 63.3973 30.2185 65.2619 31.1028 67.1948C33.2114 70.5773 36.8837 74.0986 39.9442 76.4462C41.5771 77.6882 42.8691 79.8286 44.9097 80.5881V80.3806H44.7733C44.3652 79.7592 43.753 79.4834 43.2092 78.9997C41.9852 77.7576 40.6245 76.2386 39.6726 74.8577C36.8165 70.9911 34.2993 66.7111 32.0551 62.2926C30.9671 60.1529 30.0144 57.8054 29.1306 55.6653C28.7221 54.836 28.7221 53.594 28.0422 53.1801C27.0219 54.6987 25.5259 56.0106 24.7777 57.8744C23.486 60.843 23.3496 64.502 22.8735 68.2988C22.6014 68.3686 22.737 68.2988 22.601 68.4376C20.4251 67.8845 19.6769 65.6068 18.8603 63.6735C16.8197 58.772 16.4796 50.9016 18.2485 45.2406C18.7246 43.7906 20.7652 39.2344 19.949 37.8535C19.5409 36.5416 18.1801 35.7821 17.4322 34.7468C16.5484 33.4349 15.5957 31.7786 14.9839 30.3283C13.3514 26.4621 12.5352 22.1817 10.767 18.3155C9.95077 16.5203 8.52312 14.6568 7.36639 12.9997C6.07439 11.1359 4.64596 9.82362 3.62566 7.61455C3.28595 6.85544 2.80941 5.61262 3.35357 4.78407C3.48962 4.2317 3.76131 4.02496 4.30586 3.88687C5.19013 3.12697 7.70688 4.09361 8.59036 4.50788C11.1071 5.54278 13.2154 6.51022 15.324 7.95978C16.2759 8.65024 17.2962 9.96211 18.5202 10.3073H19.9486C22.1252 10.7903 24.5732 10.4454 26.6138 11.0665C30.2189 12.2398 33.4831 13.966 36.408 15.8302C45.3179 21.5602 52.6625 29.7069 57.628 39.4411C58.4442 41.0284 58.7839 42.4792 59.5322 44.1355C60.961 47.5187 62.7291 50.9706 64.1568 54.2844C65.5852 57.5288 66.9452 60.843 68.9858 63.5358C70.0061 64.985 74.0866 65.7449 75.9231 66.5044C77.2835 67.1254 79.3922 67.6781 80.6161 68.4372C82.9284 69.8864 85.2407 71.5443 87.4174 73.1316C88.5057 73.9601 91.906 75.6863 92.1104 77.0668Z" fill="#00546B"/>
<path id="Vector_2" d="M22.7367 17.0723C21.5807 17.0723 20.7649 17.2112 19.9486 17.4179V17.556H20.0846C20.6292 18.6607 21.5807 19.4202 22.2605 20.3865C22.8051 21.4908 23.2808 22.5959 23.8254 23.7007C23.893 23.6312 23.961 23.5626 23.961 23.5626C24.9137 22.8717 25.3894 21.7674 25.3894 20.1103C24.9813 19.6274 24.9133 19.144 24.5732 18.6607C24.1655 17.9699 23.2808 17.625 22.7367 17.0723Z" fill="#00546B"/>
</g>
</g>
</svg>

<svg xmlns="http://www.w3.org/2000/svg" width="100" height="100" fill="none"><g fill="#00546B"><path d="M92.11 77.067c-5.44-.138-9.657.415-13.194 1.933-1.02.414-2.653.414-2.789 1.726.544.553.612 1.45 1.089 2.21.817 1.38 2.244 3.244 3.536 4.211 1.428 1.104 2.857 2.209 4.353 3.175 2.652 1.657 5.645 2.624 8.23 4.28 1.497.967 2.992 2.21 4.488 3.246.749.551 1.224 1.45 2.177 1.794v-.206c-.477-.622-.613-1.52-1.088-2.21-.68-.69-1.36-1.312-2.04-2.002-1.973-2.692-4.421-5.04-7.074-6.973-2.176-1.519-6.938-3.59-7.821-6.144l-.136-.138c1.496-.138 3.264-.69 4.693-1.105 2.312-.621 4.42-.483 6.8-1.104 1.089-.277 2.177-.622 3.265-.967v-.621c-1.224-1.243-2.108-2.9-3.4-4.073-3.469-3.039-7.278-6.007-11.222-8.492-2.11-1.381-4.83-2.279-7.074-3.452-.816-.415-2.176-.622-2.652-1.312-1.225-1.519-1.905-3.52-2.789-5.316-1.972-3.797-3.877-8.008-5.577-12.012-1.224-2.693-1.972-5.386-3.469-7.87-7.005-11.737-14.622-18.848-26.32-25.821-2.517-1.45-5.51-2.071-8.706-2.83-1.7-.07-3.4-.208-5.1-.277-1.09-.483-2.178-1.795-3.13-2.416C13.284 1.815 3.286-3.57.43 3.54c-1.837 4.488 2.72 8.906 4.284 11.185 1.157 1.588 2.652 3.382 3.469 5.178.476 1.172.611 2.416 1.088 3.659 1.088 3.036 2.108 6.42 3.537 9.25.748 1.45 1.564 2.97 2.516 4.281.544.76 1.496 1.105 1.7 2.347-.951 1.381-1.02 3.452-1.564 5.178-2.449 7.802-1.496 17.467 1.972 23.197 1.088 1.725 3.673 5.523 7.142 4.073 3.06-1.242 2.38-5.177 3.264-8.63.205-.829.069-1.38.476-1.933v.139c.953 1.932 1.904 3.797 2.789 5.73 2.108 3.382 5.78 6.904 8.841 9.251 1.633 1.242 2.925 3.383 4.966 4.142v-.207h-.137c-.408-.622-1.02-.898-1.564-1.381-1.224-1.242-2.585-2.761-3.536-4.142-2.857-3.867-5.374-8.147-7.618-12.565-1.088-2.14-2.04-4.488-2.924-6.628-.409-.829-.409-2.071-1.089-2.485-1.02 1.519-2.516 2.83-3.264 4.694-1.292 2.969-1.428 6.628-1.904 10.425-.273.07-.137 0-.273.139-2.176-.553-2.924-2.831-3.74-4.765-2.041-4.901-2.381-12.771-.613-18.432.477-1.45 2.517-6.007 1.701-7.388-.408-1.311-1.769-2.07-2.517-3.106-.884-1.312-1.836-2.968-2.448-4.419-1.633-3.866-2.449-8.146-4.217-12.012-.816-1.796-2.244-3.66-3.4-5.316-1.293-1.864-2.721-3.176-3.741-5.385-.34-.76-.817-2.002-.272-2.83.136-.553.407-.76.952-.898.884-.76 3.4.207 4.284.62 2.517 1.036 4.625 2.003 6.734 3.453.952.69 1.972 2.002 3.196 2.347h1.429c2.176.483 4.624.138 6.665.76 3.605 1.173 6.87 2.899 9.794 4.763 8.91 5.73 16.255 13.877 21.22 23.611.816 1.587 1.156 3.038 1.904 4.694 1.429 3.384 3.197 6.836 4.625 10.15 1.428 3.244 2.788 6.558 4.829 9.25 1.02 1.45 5.1 2.21 6.937 2.97 1.36.62 3.47 1.173 4.693 1.932 2.312 1.45 4.625 3.107 6.801 4.695 1.089.828 4.489 2.554 4.693 3.935"/><path d="M22.737 17.072c-1.156 0-1.972.14-2.788.346v.138h.136c.544 1.105 1.496 1.864 2.175 2.83.545 1.105 1.02 2.21 1.565 3.315l.136-.138c.953-.691 1.428-1.796 1.428-3.453-.408-.483-.476-.966-.816-1.45-.407-.69-1.292-1.035-1.836-1.588"/></g></svg>
